X:1
T: Haddo House
C:
R:Jig
Q:180
K:A
M:6/8
L:1/16
|:a2|f2a2f2 e2B2d2|c6 A4c2|d4b2c4a2|B6B4c2|
d4e2 f2e2d2|c4e2a4g2|f2g2a2g4f2|b6b4e2|
f2d2f2 e2a2e2|d2B2d2c4e2|f4b2 b2a2f2|g6g4e2|
d4b2c4a2|B2c2A2 G2F2E2|F4B2 G2F2G2|A6A4:|
